icons/media/youtube-24.svg

<svg width="24" height="24" viewBox="0 0 24 24" fill="none" xmlns="http://www.w3.org/2000/svg">
<g clip-path="url(#clip0_410_2389)">
<path fill-rule="evenodd" clip-rule="evenodd" d="M10.1604 7.12227C9.92994 6.97156 9.63538 6.9593 9.39316 7.09033C9.15093 7.22136 9 7.4746 9 7.75V16.25C9 16.5254 9.15093 16.7786 9.39316 16.9097C9.63538 17.0407 9.92994 17.0284 10.1604 16.8777L16.6604 12.6277C16.8723 12.4892 17 12.2531 17 12C17 11.7469 16.8723 11.5108 16.6604 11.3723L10.1604 7.12227ZM14.8795 12L10.5 14.8635V9.13647L14.8795 12Z" fill="black"/>
<path fill-rule="evenodd" clip-rule="evenodd" d="M11.9999 3L11.9188 3.00012C11.8663 3.00024 11.7892 3.00049 11.6906 3.00097C11.4934 3.00193 11.2101 3.00386 10.8648 3.00772C10.1744 3.01542 9.23475 3.03084 8.23888 3.06173C7.24425 3.09257 6.18731 3.13903 5.26437 3.20928C4.36317 3.27788 3.52376 3.37331 3.00338 3.51855L2.99262 3.52164C2.37959 3.70264 1.82698 4.04818 1.38891 4.51949C0.951045 4.99058 0.642717 5.5709 0.491698 6.20057C0.487949 6.2162 0.484704 6.23194 0.481967 6.24778C0.152773 8.15284 -0.0083542 10.0853 0.000574163 12.0209C-0.0109212 13.971 0.150218 15.9182 0.481973 17.8376C0.486029 17.8611 0.491201 17.8844 0.497471 17.9073C0.664038 18.5177 0.979509 19.0763 1.41661 19.5278C1.85391 19.9794 2.39844 20.3087 2.99907 20.4802L3.00338 20.4814C3.52376 20.6267 4.36317 20.7221 5.26437 20.7907C6.18731 20.861 7.24425 20.9074 8.23888 20.9383C9.23475 20.9692 10.1744 20.9846 10.8648 20.9923C11.2101 20.9961 11.4934 20.9981 11.6906 20.999C11.7892 20.9995 11.8663 20.9998 11.9188 20.9999L11.9996 21L12.0812 20.9999C12.1337 20.9998 12.2108 20.9995 12.3094 20.999C12.5066 20.9981 12.7899 20.9961 13.1352 20.9923C13.8256 20.9846 14.7652 20.9692 15.7611 20.9383C16.7557 20.9074 17.8127 20.861 18.7356 20.7907C19.6368 20.7221 20.4762 20.6267 20.9966 20.4814L21.0074 20.4784C21.6204 20.2974 22.173 19.9518 22.6111 19.4805C23.049 19.0094 23.3573 18.4291 23.5083 17.7994C23.5121 17.7838 23.5153 17.768 23.518 17.7522C23.8447 15.8613 24.0058 13.9434 23.9994 12.0223C24.0109 10.0719 23.8498 8.12462 23.518 6.20506C23.5153 6.18923 23.5121 6.17349 23.5083 6.15788C23.3573 5.5282 23.049 4.94789 22.6111 4.4768C22.173 4.00549 21.6204 3.65995 21.0074 3.47895C20.9984 3.47629 20.9893 3.4738 20.9802 3.47148C20.4659 3.34042 19.6321 3.25356 18.7307 3.19091C17.8091 3.12686 16.7533 3.08448 15.7591 3.05633C14.7638 3.02815 13.8245 3.01408 13.1345 3.00704C12.7893 3.00352 12.5062 3.00176 12.3091 3.00088C12.2106 3.00044 12.1335 3.00022 12.081 3.00011L11.9999 3ZM12 4.5L12.0779 4.50011C12.1293 4.50022 12.2051 4.50043 12.3024 4.50087C12.497 4.50174 12.7773 4.50348 13.1192 4.50697C13.8034 4.51394 14.7331 4.52788 15.7166 4.55573C16.7013 4.58361 17.7343 4.62528 18.6267 4.6873C19.5279 4.74994 20.227 4.82994 20.596 4.92156C20.9406 5.02594 21.257 5.22329 21.5124 5.498C21.7663 5.77117 21.9506 6.11111 22.0443 6.48581C22.3582 8.31091 22.5106 10.1624 22.4994 12.0168L22.4994 12.0239C22.5057 13.8505 22.3534 15.6738 22.0443 17.4715C21.9506 17.8462 21.7663 18.1861 21.5124 18.4593C21.2551 18.7362 20.9357 18.9344 20.5879 19.0382C20.2272 19.1378 19.53 19.2259 18.6218 19.295C17.7307 19.3629 16.6989 19.4085 15.7146 19.439C14.7316 19.4695 13.8024 19.4847 13.1185 19.4924C12.7767 19.4962 12.4966 19.4981 12.3021 19.4991C12.2049 19.4995 12.1291 19.4998 12.0777 19.4999L12.0011 19.5H11.9989L11.9223 19.4999C11.8709 19.4998 11.7951 19.4995 11.6979 19.4991C11.5034 19.4981 11.2233 19.4962 10.8815 19.4924C10.1976 19.4847 9.26837 19.4695 8.28537 19.439C7.30112 19.4085 6.26926 19.3629 5.37822 19.295C4.46734 19.2257 3.76863 19.1373 3.40885 19.0373C3.06701 18.9393 2.75154 18.7501 2.49427 18.4844C2.24378 18.2257 2.05696 17.903 1.9536 17.5447C1.6411 15.7235 1.48944 13.8762 1.50057 12.0259L1.50058 12.0178C1.49186 10.1773 1.64422 8.33987 1.9557 6.52848C2.04943 6.15378 2.23372 5.81386 2.48761 5.54069C2.74493 5.26385 3.06428 5.06557 3.41203 4.96184C3.77273 4.86222 4.47001 4.77409 5.37822 4.70495C6.26926 4.63713 7.30112 4.59153 8.28537 4.56101C9.26837 4.53052 10.1976 4.51526 10.8815 4.50762C11.2233 4.50381 11.5034 4.5019 11.6979 4.50095C11.7951 4.50047 11.8709 4.50024 11.9223 4.50012L12 4.5Z" fill="black"/>
</g>
<defs>
<clipPath id="clip0_410_2389">
<rect width="24" height="24" fill="white"/>
</clipPath>
</defs>
</svg>

<svg xmlns="http://www.w3.org/2000/svg" width="24" height="24"><g fill-rule="evenodd"><path d="M10.16 7.122A.75.75 0 009 7.75v8.5a.75.75 0 001.16.628l6.5-4.25a.75.75 0 000-1.256l-6.5-4.25zM14.88 12l-4.38 2.864V9.136L14.88 12z"/><path d="M12 3h-.081a90.077 90.077 0 00-1.054.008 135 135 0 00-2.626.054c-.995.03-2.052.077-2.975.147-.9.069-1.74.164-2.26.31l-.011.003a3.572 3.572 0 00-1.604.997 3.755 3.755 0 00-.907 1.729 33.016 33.016 0 00-.481 5.773c-.012 1.95.15 3.897.481 5.817l.015.07c.167.61.483 1.168.92 1.62.437.451.981.78 1.582.952l.004.001c.52.146 1.36.241 2.261.31.923.07 1.98.116 2.975.147a134.91 134.91 0 003.68.062h.162a77.733 77.733 0 001.054-.008c.69-.007 1.63-.023 2.626-.054.995-.03 2.052-.077 2.975-.147.9-.069 1.74-.164 2.26-.31l.011-.003a3.573 3.573 0 001.604-.998 3.754 3.754 0 00.907-1.728c.327-1.89.488-3.809.481-5.73a33.016 33.016 0 00-.49-5.864 3.754 3.754 0 00-.898-1.681 3.573 3.573 0 00-1.63-1.006c-.515-.13-1.349-.217-2.25-.28a75.326 75.326 0 00-2.972-.135A147.984 147.984 0 0012.081 3H12zm0 1.5h.078a93.952 93.952 0 011.041.007c.684.007 1.614.02 2.598.049.984.028 2.017.07 2.91.131.9.063 1.6.143 1.969.235.345.104.661.301.916.576.254.273.439.613.532.988.314 1.825.467 3.676.455 5.53v.008a31.511 31.511 0 01-.455 5.447 2.253 2.253 0 01-.532.988 2.073 2.073 0 01-.924.58c-.36.099-1.058.187-1.966.256a67.27 67.27 0 01-2.907.144 134.026 134.026 0 01-3.637.06L12 19.5h-.079a119.895 119.895 0 01-1.04-.008c-.684-.007-1.614-.023-2.597-.053a67.266 67.266 0 01-2.907-.144c-.91-.07-1.61-.158-1.97-.258a2.068 2.068 0 01-.914-.553 2.244 2.244 0 01-.54-.94 31.517 31.517 0 01-.453-5.518v-.008c-.01-1.84.143-3.678.455-5.49.093-.374.278-.714.532-.987a2.08 2.08 0 01.924-.58c.36-.099 1.058-.187 1.966-.256a67.43 67.43 0 012.907-.144 133.618 133.618 0 013.637-.06L12 4.5z"/></g></svg>
